X: 23869
T: Llancesau Trefaldwyn
R: jig
M: 6/8
K: Dmajor
|:A/G/|F2 F GFG|AFD DFA|B2 c dcB|AB/A/G FGE|
F3 GFG|AFD D2 A|Bgf edc|d3 d2:|
c/d/|e2 c Ace|f2 d A2 f|g2 e f2 d|ecA Acd|
e2 c Ace|f2 d Adf|ef/e/d cdB|AB/a/G F2 E|
F3 GFG|AFD D2 A|B2 c dcB|ABG FGE|
F^EF GFG|AFD DF/G/A|Bgf edc|d3 d2||

